theme/icons/audio-playing-symbolic.svg

<?xml version="1.0"?>
<svg xmlns="http://www.w3.org/2000/svg" width="16" height="16">
  <g fill="context-fill" stroke="context-stroke" fill-opacity="context-fill-opacity" stroke-opacity="context-stroke-opacity">
  <path
     d="m 11.462053,2.0027428 c -0.220982,-0.010045 -0.44866,0.066964 -0.622767,0.2410714 l -1.9821431,1.965402 v 1.21875 h 1.1919641 l 1.975446,-1.96875 C 12.372767,3.1110019 12.33259,2.5652427 12.051339,2.2639039 11.900669,2.1065376 11.683036,2.0127876 11.462053,2.0027428 Z M 8,2.8598856 c -0.2544643,0 -0.4955357,0.1104909 -0.659598,0.3046877 L 5,5.4279662 H 3.7142857 C 2.7767857,5.4279662 2,6.1511805 2,7.1422519 v 1.7142857 c 0,0.934152 0.7801337,1.7142854 1.7142857,1.7142854 H 5 l 2.340402,2.263393 C 7.5212051,13.05185 7.7622766,13.1456 8,13.142252 Z M 8.8571429,7.1422519 V 8.8565376 H 13.142857 C 13.785714,8.8565376 14,8.4279662 14,7.9993947 14,7.5708233 13.785714,7.1422519 13.142857,7.1422519 Z m 0,3.4285711 v 1.21875 l 1.9921881,1.965402 c 0.344865,0.35491 0.910714,0.297991 1.212053,-0.02009 0.28125,-0.301339 0.31808,-0.847098 -0.02679,-1.191964 l -1.985487,-1.972098 z m 0,0"
    />
  </g>
</svg>

<svg xmlns="http://www.w3.org/2000/svg" width="16" height="16" fill="currentColor"><path d="M11.46 2a.82.82 0 00-.62.24L8.86 4.21v1.22h1.19l1.97-1.97c.35-.35.31-.9.03-1.2a.88.88 0 00-.59-.26zM8 2.86c-.25 0-.5.11-.66.3L5 5.43H3.71A1.7 1.7 0 002 7.14v1.72c0 .93.78 1.71 1.71 1.71H5l2.34 2.26a.8.8 0 00.66.31zm.86 4.28v1.72h4.28c.65 0 .86-.43.86-.86s-.21-.86-.86-.86zm0 3.43v1.22l1.99 1.96c.34.36.91.3 1.21-.02a.87.87 0 00-.03-1.19l-1.98-1.97zm0 0"/></svg>
